fonts/makina/tmp.svg

<svg width="400" height="700" xmlns="http://www.w3.org/2000/svg">
    <path
        d="m 100,150 v 50 h 150 v -50 z m 150,50 v 50 h 50 v -50 z m 50,50 v 150 h 50 V 250 Z m 0,150 h -50 v 50 h 50 z M 100,200 H 50 v 50 h 50 z M 50,250 H 0 v 150 h 50 z m 0,150 v 50 h 50 v -50 z" />
    <path
        d="m 50,200 v 50 h 50 v -50 z m 0,50 H 0 v 150 h 50 z m 0,150 v 50 h 50 v -50 z m 50,50 v 50 h 150 v -50 z m 150,0 h 50 v -50 h -50 z m 50,-50 h 50 V 250 h -50 z m 0,-150 v -50 h -50 v 50 z" />
</svg>

<?xml version="1.0" encoding="UTF-8" standalone="no"?>
<svg width="400" height="700" version="1.1" id="svg2" sodipodi:docname="tmp.svg" inkscape:version="1.4.2 (ebf0e940, 2025-05-08)" xmlns:inkscape="http://www.inkscape.org/namespaces/inkscape" xmlns:sodipodi="http://sodipodi.sourceforge.net/DTD/sodipodi-0.dtd" xmlns="http://www.w3.org/2000/svg" xmlns:svg="http://www.w3.org/2000/svg">
    <defs id="defs2" />
    <sodipodi:namedview id="namedview2" pagecolor="#ffffff" bordercolor="#000000" borderopacity="0.25" inkscape:showpageshadow="2" inkscape:pageopacity="0.0" inkscape:pagecheckerboard="0" inkscape:deskcolor="#d1d1d1" inkscape:zoom="0.38434783" inkscape:cx="189.93213" inkscape:cy="351.24434" inkscape:window-width="1080" inkscape:window-height="675" inkscape:window-x="0" inkscape:window-y="25" inkscape:window-maximized="0" inkscape:current-layer="svg2" />
    <path id="path1" d="M 50 200 L 50 250 L 100 250 L 100 200 L 50 200 z M 50 250 L 0 250 L 0 400 L 50 400 L 50 250 z M 50 400 L 50 450 L 100 450 L 100 400 L 50 400 z M 250 200 L 250 250 L 300 250 L 300 200 L 250 200 z M 300 250 L 300 400 L 350 400 L 350 250 L 300 250 z M 300 400 L 250 400 L 250 450 L 300 450 L 300 400 z " />
</svg>
